X:26
T:Comical Fancy, The
M:2/4
L:1/8
B:Thompson's Compleat Collection of 200 Favourite Country Dances, vol. 2 (London, 1765)
Z:Transcribed and edited by Flynn Titford-Mock, 2007
Z:abc's:AK/Fiddler's Companion
K:A
aecA | afdB | aecA | (3BBB B2 | Abcd ecdB | cedB | (3AAA A2 :|
|: cece | BeBe | cedc | (3BBB B2 | cece | face | dBec | (3AAA A2 :|

